justvector/plixi.svg

<?xml version="1.0" encoding="iso-8859-1"?>
<!-- Generator: Adobe Illustrator 15.0.0, SVG Export Plug-In . SVG Version: 6.00 Build 0)  -->
<!DOCTYPE svg PUBLIC "-//W3C//DTD SVG 1.1//EN" "http://www.w3.org/Graphics/SVG/1.1/DTD/svg11.dtd">
<svg version="1.1" id="Layer_1" xmlns="http://www.w3.org/2000/svg" xmlns:xlink="http://www.w3.org/1999/xlink" x="0px" y="0px"
	 width="100px" height="100px" viewBox="0 0 100 100" style="enable-background:new 0 0 100 100;" xml:space="preserve">
<path id="Plixi" d="M31.853,52.586c0.246,3.235,0.984,11.001,2.609,15.309c-1.994-0.359-4.186-0.792-6.307-1.242
	c-2.299-0.488-4.631-0.762-6.142-1.925c-1.541-1.187-2.991-3.21-3.011-6.015c-0.029-3.963,2.938-7.226,6.744-7.577
	C28.036,50.922,29.834,51.827,31.853,52.586z M75.853,16.012c-3.365-5.601-9.123-11.714-18.548-10.947
	c-4.832,0.396-8.505,2.759-11.441,5.293c-5.856,5.055-9.897,12.247-11.683,21.048c-1.006,4.969-1.088,9.93-0.965,15.155
	c0.066,2.754,0.059,5.303,0.361,7.82c0.887,7.326,2.143,14.013,4.459,20.084c2.19,5.748,5.221,11.124,9.031,15.518
	c1.314,1.514,2.809,3.397,4.096,4.091c4.859,2.615,10.454-0.622,10.355-5.775c-0.047-2.534-1.054-3.228-2.287-4.931
	c-0.713-0.986-1.368-2.124-1.927-3.127c-0.257-0.463-0.513-0.937-0.763-1.414h-0.003c0,0-4.254-5.01-7.028-19.197
	c-0.656-3.05-1.148-6.266-1.435-9.584c0-0.016-0.003-0.03-0.005-0.045h0.002c-0.184-2.153-0.283-4.346-0.283-6.566
	c0-8.987,1.473-16.478,5.539-21.65c1.152-1.462,3.466-3.527,5.902-3.488c3.85,0.066,5.793,4.081,6.745,6.978
	c2.506,7.635,1.245,17.127-1.444,23.334c-1.448,3.333-3.08,6.175-6.145,7.697c-2.402,1.194-5.088,1.101-7.564,0.53
	c0,0-0.364,3.811,3.773,14.81c4.219,0.152,7.658-1.192,10.535-2.95c8.785-5.361,14.457-16.053,15.658-28.507
	C81.72,30.543,79.51,22.101,75.853,16.012z"/>
</svg>

<?xml version="1.0" encoding="UTF-8" standalone="no"?>
<!DOCTYPE svg PUBLIC "-//W3C//DTD SVG 1.1//EN" "http://www.w3.org/Graphics/SVG/1.1/DTD/svg11.dtd">
<svg width="100%" height="100%" viewBox="0 0 100 100" version="1.1" xmlns="http://www.w3.org/2000/svg" xmlns:xlink="http://www.w3.org/1999/xlink" xml:space="preserve" xmlns:serif="http://www.serif.com/" style="fill-rule:evenodd;clip-rule:evenodd;stroke-linejoin:round;stroke-miterlimit:2;">
    <path id="Plixi" d="M25.746,51.136C28.036,50.922 32.837,63.587 34.462,67.895C32.468,67.536 30.276,67.103 28.155,66.653C25.856,66.165 23.524,65.891 22.013,64.728C20.472,63.541 19.022,61.518 19.002,58.713C18.973,54.75 21.94,51.487 25.746,51.136ZM75.853,16.012C72.307,10.524 66.73,4.298 57.305,5.065C52.473,5.461 48.8,7.824 45.864,10.358C40.008,15.413 35.967,22.605 34.181,31.406C33.175,36.375 33.093,41.336 33.216,46.561C33.282,49.315 33.275,51.864 33.577,54.381C34.464,61.707 35.72,68.394 38.036,74.465C40.226,80.213 43.257,85.589 47.067,89.983C48.381,91.497 49.876,93.38 51.163,94.074C56.022,96.689 61.617,93.452 61.518,88.299C61.471,85.765 60.464,85.071 59.231,83.368C58.518,82.382 57.863,81.244 57.304,80.241C57.047,79.778 56.791,79.304 56.541,78.827L56.538,78.827C56.538,78.827 52.284,73.817 49.51,59.63C48.854,56.58 48.362,53.364 48.075,50.046C48.075,50.03 48.072,50.016 48.07,50.001L48.072,50.001C47.888,47.848 47.789,45.655 47.789,43.435C47.789,34.448 49.262,26.957 53.328,21.785C54.48,20.323 56.794,18.258 59.23,18.297C63.08,18.363 65.02,22.379 65.975,25.275C73.829,49.082 51.312,56.949 50.822,56.836C50.822,56.836 67.079,60.927 75.196,50.673C84.25,39.234 81.998,25.524 75.853,16.012Z" style="fill-rule:nonzero;"/>
</svg>
